assets/icons/health-filled.svg

<?xml version="1.0" encoding="UTF-8" standalone="no"?>
<svg viewBox="0 0 24 24" height="24" id="svg7384" version="1.1" width="24" sodipodi:docname="health-filled.svg" inkscape:version="1.1.2 (08b2f3d93c, 2022-04-05)"
   xmlns:inkscape="http://www.inkscape.org/namespaces/inkscape"
   xmlns:sodipodi="http://sodipodi.sourceforge.net/DTD/sodipodi-0.dtd"
   xmlns="http://www.w3.org/2000/svg"
   xmlns:svg="http://www.w3.org/2000/svg"
   xmlns:rdf="http://www.w3.org/1999/02/22-rdf-syntax-ns#"
   xmlns:cc="http://creativecommons.org/ns#"
   xmlns:dc="http://purl.org/dc/elements/1.1/">
   <sodipodi:namedview id="namedview21" pagecolor="#ffffff" bordercolor="#666666" borderopacity="1.0" inkscape:pageshadow="2" inkscape:pageopacity="0.0" inkscape:pagecheckerboard="0" showgrid="true" inkscape:zoom="8.518427" inkscape:cx="76.481256" inkscape:cy="-4.8130952" inkscape:window-width="1920" inkscape:window-height="1043" inkscape:window-x="1920" inkscape:window-y="0" inkscape:window-maximized="1" inkscape:current-layer="svg7384">
      <inkscape:grid type="xygrid" id="grid23" />
      <inkscape:grid type="xygrid" id="grid1311" dotted="true" spacingx="0.5" spacingy="0.5" empspacing="10" />
   </sodipodi:namedview>
   <metadata id="metadata20854">
      <rdf:RDF>
         <cc:Work rdf:about="">
            <dc:format>image/svg+xml</dc:format>
            <dc:type rdf:resource="http://purl.org/dc/dcmitype/StillImage" />
         </cc:Work>
      </rdf:RDF>
   </metadata>
   <defs id="defs7386">
      <linearGradient id="linearGradient5606" inkscape:swatch="solid">
         <stop id="stop5608" offset="0" style="stop-color:#000000;stop-opacity:1;" />
      </linearGradient>
      <linearGradient id="linearGradient4526" inkscape:swatch="solid">
         <stop id="stop4528" offset="0" style="stop-color:#ffffff;stop-opacity:1;" />
      </linearGradient>
      <linearGradient id="linearGradient3600-4" inkscape:swatch="gradient">
         <stop id="stop3602-7" offset="0" style="stop-color:#f4f4f4;stop-opacity:1" />
         <stop id="stop3604-6" offset="1" style="stop-color:#dbdbdb;stop-opacity:1" />
      </linearGradient>
   </defs>
   <g id="layer9" label="status" style="display:inline" transform="matrix(1.4285704,0,0,1.4285704,-1103.7138,-165.14273)" />
   <g id="layer2" style="display:inline" transform="matrix(1.4285704,0,0,1.4285704,-759.42803,-689.42807)" />
   <g id="layer4" style="display:inline" transform="matrix(1.4285704,0,0,1.4285704,-759.42803,-689.42807)" />
   <g id="g1812" style="display:inline" transform="matrix(1.4285704,0,0,1.4285704,-759.42803,-689.42807)" />
   <g id="g6217" style="display:inline" transform="matrix(1.4285704,0,0,1.4285704,-759.42803,-689.42807)" />
   <g id="layer3" style="display:inline" transform="matrix(1.4285704,0,0,1.4285704,-759.42803,-689.42807)" />
   <g id="g1833" style="display:inline" transform="matrix(1.4285704,0,0,1.4285704,-759.42803,-689.42807)" />
   <g id="layer1" style="display:inline" transform="matrix(1.4285704,0,0,1.4285704,-759.42803,-689.42807)" />
   <path id="path4849-1" style="color:#000000;fill:#808080;stroke:none;stroke-width:1.25;-inkscape-stroke:none" d="M 7.6464844 2 C 4.5769219 2 2.0669375 4.4662925 2 7.5214844 L 2 7.5292969 L 2 7.5351562 C 2 8.9075224 2.3656049 9.9899417 2.7089844 10.914062 L 2.7148438 10.925781 L 2.71875 10.939453 C 2.8707019 11.299171 3.0397962 11.651451 3.2167969 12 L 6.1230469 12 L 8.0195312 5.3632812 A 0.50005 0.50005 0 0 1 8.4960938 5 A 0.50005 0.50005 0 0 1 8.9785156 5.3554688 L 11.566406 13.984375 L 13.035156 10.314453 A 0.50005 0.50005 0 0 1 13.947266 10.277344 L 14.808594 12 L 20.783203 12 C 20.960204 11.651451 21.129298 11.299171 21.28125 10.939453 L 21.287109 10.925781 L 21.291016 10.914062 C 21.634396 9.9899417 22 8.9075223 22 7.5351562 L 22 7.5292969 L 22 7.5214844 C 21.93317 4.4662791 19.423092 2 16.353516 2 C 14.543807 2 13.033768 2.9540558 12 4.2832031 C 10.966232 2.9540558 9.4581473 2 7.6484375 2 L 7.6464844 2 z M 8.5117188 7.2773438 L 6.9804688 12.636719 A 0.50005 0.50005 0 0 1 6.5 13 L 3.7617188 13 C 5.5484235 16.029845 8.2711449 18.733222 11.570312 21.830078 L 12 22.234375 L 12.429688 21.830078 C 15.728855 18.733222 18.451577 16.029845 20.238281 13 L 14.5 13 A 0.50005 0.50005 0 0 1 14.052734 12.722656 L 13.550781 11.71875 L 11.964844 15.685547 A 0.50005 0.50005 0 0 1 11.021484 15.644531 L 8.5117188 7.2773438 z " />
</svg>

<svg height="24" width="24" xmlns="http://www.w3.org/2000/svg"><path style="color:#000;fill:gray;stroke:none;stroke-width:1.25;-inkscape-stroke:none" d="M7.646 2A5.656 5.656 0 0 0 2 7.521v.014c0 1.373.366 2.455.709 3.38l.006.01.004.014c.152.36.32.712.498 1.061h2.906L8.02 5.363A.5.5 0 0 1 8.496 5a.5.5 0 0 1 .483.355l2.587 8.63 1.47-3.67a.5.5 0 0 1 .911-.038L14.81 12h5.974c.177-.349.346-.7.498-1.06l.006-.014.004-.012c.343-.924.709-2.006.709-3.379v-.014A5.656 5.656 0 0 0 16.354 2c-1.81 0-3.32.954-4.354 2.283C10.966 2.954 9.458 2 7.648 2h-.002zm.866 5.277-1.532 5.36A.5.5 0 0 1 6.5 13H3.762c1.786 3.03 4.51 5.733 7.808 8.83l.43.404.43-.404c3.299-3.097 6.022-5.8 7.808-8.83H14.5a.5.5 0 0 1-.447-.277l-.502-1.004-1.586 3.967a.5.5 0 0 1-.944-.041l-2.51-8.368z"/></svg>
